icon/pk/gastrointestinal.svg

<svg viewBox="0 0 48 48" fill="none" xmlns="http://www.w3.org/2000/svg" height="1em" width="1em">
  <path d="M22.9999 5C21.8537 9.46023 21.8537 12.7727 22.9999 14.9375C24.719 18.1847 28.7 19.9804 23.5741 24.3115C18.4482 28.6427 13.2512 25.0083 10.0425 25.0083C6.83388 25.0083 4.02246 28.6213 4.02246 34C4.02246 37.5858 4.68159 40.5858 5.99986 43" stroke="black" stroke-width="4" stroke-linecap="round" stroke-linejoin="round"/>
  <path d="M29.9842 5C28.5428 10.329 28.8711 13.7087 30.9694 15.1393C34.1168 17.2851 34.358 12.8036 40.141 15.4699C45.924 18.1363 44.4204 27.4311 41.0941 32.2156C37.7677 37 30.6675 41.8347 24.0084 41C17.3493 40.1653 14.8733 32.0201 14.0161 32.0201C13.159 32.0201 11.3479 32.0455 10.9943 35.4172C10.7585 37.6649 11.4287 40.1926 13.0048 43" stroke="black" stroke-width="4" stroke-linecap="round" stroke-linejoin="round"/>
  <path d="M35.6447 28.29C35.0666 30.0018 34.09 31.3384 32.7148 32.3C31.3397 33.2615 29.5942 33.8283 27.4785 34.0002" stroke="black" stroke-width="4" stroke-linecap="round"/>
</svg>

<svg width="48" height="48" fill="none" xmlns="http://www.w3.org/2000/svg"><path d="M23 5c-1.146 4.46-1.146 7.773 0 9.938 1.719 3.247 5.7 5.042.574 9.373-5.126 4.332-10.323.697-13.532.697-3.208 0-6.02 3.613-6.02 8.992 0 3.586.66 6.586 1.978 9" stroke="#000" stroke-width="4" stroke-linecap="round" stroke-linejoin="round"/><path d="M29.984 5c-1.441 5.329-1.113 8.709.985 10.14 3.148 2.145 3.389-2.336 9.172.33 5.783 2.666 4.28 11.961.953 16.746C37.768 37 30.667 41.835 24.008 41c-6.659-.835-9.135-8.98-9.992-8.98-.857 0-2.668.025-3.022 3.397-.236 2.248.435 4.776 2.01 7.583" stroke="#000" stroke-width="4" stroke-linecap="round" stroke-linejoin="round"/><path d="M35.645 28.29c-.578 1.712-1.555 3.048-2.93 4.01-1.375.962-3.12 1.528-5.237 1.7" stroke="#000" stroke-width="4" stroke-linecap="round"/></svg>
